src/flags/country-flag/1F1F8-1F1FD.svg

<svg id="emoji" viewBox="0 0 72 72" xmlns="http://www.w3.org/2000/svg">
  <g id="grid">
    <path fill="#b3b3b3" d="M68,4V68H4V4H68m4-4H0V72H72V0Z"/>
    <path fill="none" stroke="#00a5ff" stroke-miterlimit="10" stroke-width="0.1" d="M12.923,10.9583H59.0769A1.9231,1.9231,0,0,1,61,12.8814V59.0352a1.9231,1.9231,0,0,1-1.9231,1.9231H12.9231A1.9231,1.9231,0,0,1,11,59.0352V12.8813A1.923,1.923,0,0,1,12.923,10.9583Z"/>
    <rect x="16" y="4" rx="2.2537" ry="2.2537" width="40" height="64" fill="none" stroke="#00a5ff" stroke-miterlimit="10" stroke-width="0.1"/>
    <rect x="16" y="4" rx="2.2537" ry="2.2537" width="40" height="64" transform="translate(72) rotate(90)" fill="none" stroke="#00a5ff" stroke-miterlimit="10" stroke-width="0.1"/>
    <circle cx="36" cy="36" r="29" fill="none" stroke="#00a5ff" stroke-miterlimit="10" stroke-width="0.1"/>
  </g>
  <g id="color">
    <rect x="5" y="17" width="62" height="38" fill="#d22f27"/>
    <rect x="5" y="36" width="62" height="19" fill="#1e50a0"/>
    <polygon fill="#fff" points="26 36 5 55 5 17 26 36"/>
    <circle cx="13" cy="31" r="2.5" fill="#fcea2b" stroke="#fcea2b" stroke-linecap="round" stroke-linejoin="round"/>
    <path fill="#92d3f5" stroke="#d22f27" stroke-linecap="round" stroke-linejoin="round" d="M18,31.7758v4.6121C18,39.847,13.0417,41,13.0417,41S8.0833,39.847,8.0833,36.3879V31.7758A16.6778,16.6778,0,0,1,18,31.7758Z"/>
    <path fill="none" stroke="#fcea2b" stroke-linecap="round" stroke-linejoin="round" d="M19,39c0,1.933-2.6863,3.5-6,3.5S7,40.933,7,39"/>
    <rect x="11" y="34" width="4" height="3" fill="#fff" stroke="#fff" stroke-linecap="round" stroke-linejoin="round" stroke-width="2"/>
  </g>
  <g id="line">
    <rect x="5" y="17" width="62" height="38" fill="none" stroke="#000" stroke-linecap="round" stroke-linejoin="round" stroke-width="2"/>
  </g>
</svg>

<svg viewBox="0 0 72 72" xmlns="http://www.w3.org/2000/svg"><path fill="#b3b3b3" d="M68 4v64H4V4h64m4-4H0v72h72V0z"/><path fill="none" stroke="#00a5ff" stroke-miterlimit="10" stroke-width=".1" d="M12.923 10.958h46.154A1.923 1.923 0 0161 12.881v46.154a1.923 1.923 0 01-1.923 1.923H12.923A1.923 1.923 0 0111 59.035V12.881a1.923 1.923 0 011.923-1.923z"/><rect x="16" y="4" rx="2.254" ry="2.254" width="40" height="64" fill="none" stroke="#00a5ff" stroke-miterlimit="10" stroke-width=".1"/><rect x="16" y="4" rx="2.254" ry="2.254" width="40" height="64" transform="rotate(90 36 36)" fill="none" stroke="#00a5ff" stroke-miterlimit="10" stroke-width=".1"/><circle cx="36" cy="36" r="29" fill="none" stroke="#00a5ff" stroke-miterlimit="10" stroke-width=".1"/><path d="M5 17h62v38H5z" stroke-linecap="round" stroke-miterlimit="10" stroke-width="6" stroke="#fff" fill="none" stroke-linejoin="round"/><path fill="#d22f27" d="M5 17h62v38H5z"/><path fill="#1e50a0" d="M5 36h62v19H5z"/><path fill="#fff" d="M26 36L5 55V17l21 19z"/><circle cx="13" cy="31" r="2.5" fill="#fcea2b" stroke="#fcea2b" stroke-linecap="round" stroke-linejoin="round"/><path fill="#92d3f5" stroke="#d22f27" stroke-linecap="round" stroke-linejoin="round" d="M18 31.776v4.612C18 39.847 13.042 41 13.042 41s-4.959-1.153-4.959-4.612v-4.612a16.678 16.678 0 019.917 0z"/><path fill="none" stroke="#fcea2b" stroke-linecap="round" stroke-linejoin="round" d="M19 39c0 1.933-2.686 3.5-6 3.5S7 40.933 7 39"/><path fill="#fff" stroke="#fff" stroke-linecap="round" stroke-linejoin="round" stroke-width="2" d="M11 34h4v3h-4z"/><g><path fill="none" stroke="#000" stroke-linecap="round" stroke-linejoin="round" stroke-width="2" d="M5 17h62v38H5z"/></g></svg>
